X: 482
T: A Whisky Kiss
R: reel
M: 4/4
K: Amixolydian
|:"A"cdeg a2 ed|"A"cded cA ~A2|"C"=cdef g2 gf|"G"gdBd gaed|
"A"cdeg a2 ed|"A"cded cA ~A2|"C"=cded cGcd|"G"Bdgd gaed:|
|:"A"eded cdeg|"A"aged edcA|"C"=cGcd eded|"G"Bdgd gaed|
"A"eded cdeg|"A"aged edcA|"C"=cded cGcd|"G"Bdgd gaed:|
|:"A"ea ~a2 gaeg|"A"aged cded|"C"=cg ~g2 fgeg|"G"dgBe gaed|
"A"ea ~a2 gaeg|"A"aged cded|"C"=cded cGcd|"G"Bdgd gaed:|"A"c8||

